X:3610
T:Legacy, The
T:Tailor's Wedding, The
O:england
R:Jig
S:O'Neill's
M:6/8
L:1/8
K:G
D|~G3 ~B3|~g3 gab|~G3 BAB|dBA A3|
~G3 ~B3|~g3 gab|age edB|dBA A2:|
|:D|efe edB|~d3 dBd|efe edB|dBA ABd|
efe edB|~d3 def|gfe edB|dBA A2:|


